img/card3.svg

<svg width="61" height="91" viewBox="0 0 61 91" fill="none" xmlns="http://www.w3.org/2000/svg">
<rect x="0.392578" y="0.0498047" width="60.057" height="90.0855" rx="4.61977" fill="white"/>
<mask id="mask0_1592_9465" style="mask-type:alpha" maskUnits="userSpaceOnUse" x="1" y="1" width="58" height="87">
<path d="M11.2824 2.3597H53.5203C55.7528 2.3597 57.5626 4.1695 57.5626 6.402L57.5625 70.3449C57.5625 71.707 56.4583 72.8112 55.0962 72.8112C53.5609 72.8112 52.1925 73.7794 51.6815 75.2272L49.4244 81.6224C49.0486 82.687 49.3875 83.8729 50.2691 84.5782C51.3757 85.4635 50.7497 87.248 49.3326 87.248H6.32024C4.03624 87.248 2.20584 85.3571 2.28008 83.0743L4.3241 20.222C4.37573 18.6343 5.67773 17.374 7.26623 17.374C9.52984 17.374 11.3649 15.5389 11.3649 13.2753L11.3649 8.21691C11.3649 7.25616 10.9125 6.35148 10.1439 5.77503C8.68518 4.68097 9.45894 2.3597 11.2824 2.3597Z" fill="#C4C4C4" stroke="black" stroke-width="1.15494"/>
</mask>
<g mask="url(#mask0_1592_9465)">
<rect x="6.1678" y="5.24715" width="49.6625" height="79.691" rx="4.0423" stroke="black" stroke-width="1.15494"/>
</g>
<path d="M16.6963 19.6839H11.8157C13.7571 18.5462 14.1011 17.6245 14.256 15.8054L11.0023 17.3568C9.22266 16.1671 9.12927 15.4889 11.0023 14.254L14.256 15.8054L12.629 11.9269C13.6595 9.91289 14.6625 9.98775 15.8828 11.9269L14.256 15.8054L17.9165 14.254C19.3434 15.4658 19.0275 16.145 17.9165 17.3568L14.256 15.8054C14.5519 17.6248 14.9741 18.5255 16.6963 19.6839Z" fill="black"/>
<path d="M14.256 15.8054C14.1011 17.6245 13.7571 18.5462 11.8157 19.6839H16.6963C14.9741 18.5255 14.5519 17.6248 14.256 15.8054ZM14.256 15.8054L11.0023 17.3568C9.22266 16.1671 9.12927 15.4889 11.0023 14.254L14.256 15.8054ZM14.256 15.8054L15.8828 11.9269C14.6625 9.98775 13.6595 9.91289 12.629 11.9269L14.256 15.8054ZM14.256 15.8054L17.9165 14.254C19.3434 15.4658 19.0275 16.145 17.9165 17.3568L14.256 15.8054Z" stroke="black" stroke-width="1.15494"/>
<path d="M44.146 70.5012L49.0266 70.5012C47.0852 71.6388 46.7412 72.5605 46.5863 74.3797L49.84 72.8283C51.6196 74.018 51.713 74.6962 49.84 75.9311L46.5863 74.3797L48.2133 78.2581C47.1828 80.2722 46.1798 80.1973 44.9595 78.2581L46.5863 74.3797L42.9258 75.9311C41.4989 74.7193 41.8148 74.0401 42.9258 72.8283L46.5863 74.3797C46.2903 72.5602 45.8682 71.6595 44.146 70.5012Z" fill="black"/>
<path d="M46.5863 74.3797C46.7412 72.5605 47.0852 71.6388 49.0266 70.5012L44.146 70.5012C45.8682 71.6595 46.2903 72.5602 46.5863 74.3797ZM46.5863 74.3797L49.84 72.8283C51.6196 74.018 51.713 74.6962 49.84 75.9311L46.5863 74.3797ZM46.5863 74.3797L44.9595 78.2581C46.1798 80.1973 47.1828 80.2722 48.2133 78.2581L46.5863 74.3797ZM46.5863 74.3797L42.9258 75.9311C41.4989 74.7193 41.8148 74.0401 42.9258 72.8283L46.5863 74.3797Z" stroke="black" stroke-width="1.15494"/>
<path d="M5.15024 9.2543C5.15438 9.25843 5.16265 9.2605 5.17505 9.2605C5.18746 9.26464 5.21227 9.26671 5.24949 9.26671C5.31153 9.26671 5.39217 9.2605 5.49142 9.2481C5.59067 9.23569 5.69613 9.20674 5.80779 9.16125C5.92359 9.11576 6.03731 9.04959 6.14897 8.96274C6.26477 8.8759 6.36816 8.7601 6.45914 8.61536C6.55426 8.46648 6.63076 8.28452 6.68866 8.06947C6.74656 7.85442 6.77551 7.59595 6.77551 7.29405C6.77551 7.12863 6.74449 6.97769 6.68246 6.84121C6.62043 6.70061 6.53978 6.58067 6.44053 6.48142C6.34541 6.38217 6.23789 6.30566 6.11796 6.2519C6.00216 6.194 5.88637 6.16505 5.77057 6.16505C5.70854 6.16919 5.64651 6.17953 5.58447 6.19607C5.53071 6.21261 5.47075 6.23743 5.40458 6.27051C5.33841 6.30359 5.27431 6.34908 5.21228 6.40698C5.27431 6.48969 5.32187 6.57654 5.35495 6.66752C5.39217 6.7585 5.42112 6.84328 5.4418 6.92186C5.46247 7.01284 5.47488 7.10382 5.47902 7.1948C5.47902 7.33955 5.45007 7.46568 5.39217 7.5732C5.33427 7.68073 5.25983 7.77171 5.16885 7.84615C5.082 7.92059 4.98482 7.97642 4.8773 8.01364C4.76977 8.05086 4.66638 8.06947 4.56713 8.06947C4.48442 8.06947 4.3769 8.05913 4.24456 8.03845C4.11636 8.01364 3.99022 7.95988 3.86616 7.87717C3.74209 7.79445 3.63457 7.67246 3.54359 7.51117C3.4526 7.34988 3.40711 7.1307 3.40711 6.85362C3.40711 6.58067 3.46915 6.33461 3.59321 6.11543C3.72141 5.89211 3.89097 5.70187 4.10188 5.54472C4.31693 5.38344 4.56506 5.26144 4.84628 5.17873C5.1275 5.09188 5.42319 5.04846 5.73335 5.04846C6.04352 5.04846 6.34955 5.10222 6.65144 5.20974C6.95334 5.31727 7.22215 5.47855 7.45787 5.6936C7.69773 5.90865 7.8921 6.17746 8.04098 6.50003C8.18986 6.81847 8.2643 7.19067 8.2643 7.61663C8.2643 7.91025 8.22294 8.17906 8.14023 8.42306C8.06166 8.66705 7.9562 8.88624 7.82386 9.08061C7.69566 9.27084 7.54885 9.43833 7.38343 9.58307C7.22214 9.72368 7.05672 9.84155 6.88716 9.93666C7.05672 10.0111 7.22214 10.1083 7.38343 10.2282C7.54885 10.3481 7.69566 10.4929 7.82386 10.6624C7.9562 10.8279 8.06166 11.0222 8.14023 11.2456C8.22294 11.4689 8.2643 11.7232 8.2643 12.0086C8.2643 12.4345 8.18986 12.8088 8.04098 13.1314C7.8921 13.4498 7.69773 13.7165 7.45787 13.9316C7.22214 14.1466 6.95333 14.3079 6.65144 14.4154C6.34954 14.523 6.04351 14.5767 5.73335 14.5767C5.42318 14.5767 5.12749 14.5333 4.84627 14.4465C4.56506 14.3638 4.31693 14.2438 4.10188 14.0867C3.89097 13.9254 3.72141 13.7352 3.59321 13.516C3.46914 13.2927 3.40711 13.0445 3.40711 12.7716C3.40711 12.4945 3.4526 12.2753 3.54358 12.114C3.63456 11.9527 3.74209 11.8307 3.86615 11.748C3.99022 11.6653 4.11635 11.6116 4.24456 11.5867C4.37689 11.5619 4.48442 11.5495 4.56713 11.5495C4.66638 11.5495 4.76977 11.5702 4.87729 11.6116C4.98482 11.6488 5.082 11.7046 5.16885 11.779C5.25983 11.8535 5.33427 11.9465 5.39217 12.0582C5.45006 12.1657 5.47901 12.2898 5.47901 12.4304C5.47488 12.5214 5.46454 12.6124 5.448 12.7033C5.43145 12.7819 5.40457 12.8667 5.36735 12.9577C5.33013 13.0487 5.27844 13.1355 5.21227 13.2182C5.2743 13.2802 5.3384 13.3278 5.40457 13.3609C5.47074 13.3898 5.53071 13.4126 5.58447 13.4291C5.6465 13.4457 5.70853 13.456 5.77057 13.4601C5.88636 13.4601 6.00216 13.4333 6.11795 13.3795C6.23788 13.3216 6.34541 13.243 6.44052 13.1438C6.53978 13.0445 6.62042 12.9267 6.68245 12.7902C6.74449 12.6496 6.7755 12.4945 6.7755 12.3249C6.7755 12.0189 6.74449 11.7584 6.68245 11.5433C6.62042 11.3241 6.53978 11.1422 6.44053 10.9974C6.34127 10.8527 6.23168 10.739 6.11175 10.6562C5.99182 10.5735 5.87396 10.5115 5.75816 10.4701C5.64237 10.4247 5.53484 10.3978 5.43559 10.3895C5.34047 10.3771 5.26603 10.3709 5.21227 10.3709H5.15024L5.15024 9.2543Z" fill="black"/>
<path d="M55.692 80.9308C55.6879 80.9266 55.6796 80.9246 55.6672 80.9246C55.6548 80.9204 55.63 80.9184 55.5928 80.9184C55.5308 80.9184 55.4501 80.9246 55.3509 80.937C55.2516 80.9494 55.1462 80.9783 55.0345 81.0238C54.9187 81.0693 54.805 81.1355 54.6933 81.2223C54.5775 81.3092 54.4741 81.425 54.3831 81.5697C54.288 81.7186 54.2115 81.9005 54.1536 82.1156C54.0957 82.3306 54.0668 82.5891 54.0668 82.891C54.0668 83.0564 54.0978 83.2074 54.1598 83.3438C54.2219 83.4845 54.3025 83.6044 54.4018 83.7036C54.4969 83.8029 54.6044 83.8794 54.7243 83.9332C54.8401 83.9911 54.9559 84.02 55.0717 84.02C55.1337 84.0159 55.1958 84.0055 55.2578 83.989C55.3116 83.9724 55.3715 83.9476 55.4377 83.9145C55.5039 83.8815 55.568 83.836 55.63 83.7781C55.568 83.6954 55.5204 83.6085 55.4873 83.5175C55.4501 83.4266 55.4212 83.3418 55.4005 83.2632C55.3798 83.1722 55.3674 83.0812 55.3633 82.9903C55.3633 82.8455 55.3922 82.7194 55.4501 82.6119C55.508 82.5043 55.5825 82.4133 55.6734 82.3389C55.7603 82.2645 55.8575 82.2086 55.965 82.1714C56.0725 82.1342 56.1759 82.1156 56.2752 82.1156C56.3579 82.1156 56.4654 82.1259 56.5977 82.1466C56.7259 82.1714 56.8521 82.2252 56.9761 82.3079C57.1002 82.3906 57.2077 82.5126 57.2987 82.6739C57.3897 82.8352 57.4352 83.0544 57.4352 83.3314C57.4352 83.6044 57.3731 83.8504 57.2491 84.0696C57.1209 84.293 56.9513 84.4832 56.7404 84.6403C56.5254 84.8016 56.2772 84.9236 55.996 85.0063C55.7148 85.0932 55.4191 85.1366 55.1089 85.1366C54.7988 85.1366 54.4927 85.0828 54.1908 84.9753C53.8889 84.8678 53.6201 84.7065 53.3844 84.4915C53.1446 84.2764 52.9502 84.0076 52.8013 83.685C52.6524 83.3666 52.578 82.9944 52.578 82.5684C52.578 82.2748 52.6193 82.006 52.7021 81.762C52.7806 81.518 52.8861 81.2988 53.0184 81.1045C53.1466 80.9142 53.2934 80.7467 53.4589 80.602C53.6201 80.4614 53.7856 80.3435 53.9551 80.2484C53.7856 80.174 53.6201 80.0768 53.4589 79.9568C53.2934 79.8369 53.1466 79.6922 53.0184 79.5226C52.8861 79.3572 52.7806 79.1628 52.7021 78.9395C52.6193 78.7162 52.578 78.4618 52.578 78.1765C52.578 77.7505 52.6524 77.3763 52.8013 77.0537C52.9502 76.7353 53.1446 76.4685 53.3844 76.2535C53.6201 76.0384 53.889 75.8771 54.1909 75.7696C54.4927 75.6621 54.7988 75.6083 55.1089 75.6083C55.4191 75.6083 55.7148 75.6517 55.996 75.7386C56.2772 75.8213 56.5254 75.9412 56.7404 76.0984C56.9513 76.2597 57.1209 76.4499 57.2491 76.6691C57.3731 76.8924 57.4352 77.1405 57.4352 77.4135C57.4352 77.6906 57.3897 77.9097 57.2987 78.071C57.2077 78.2323 57.1002 78.3543 56.9761 78.437C56.8521 78.5197 56.7259 78.5735 56.5977 78.5983C56.4654 78.6231 56.3579 78.6355 56.2752 78.6355C56.1759 78.6355 56.0725 78.6149 55.965 78.5735C55.8575 78.5363 55.7603 78.4805 55.6734 78.406C55.5825 78.3316 55.508 78.2385 55.4501 78.1269C55.3922 78.0193 55.3633 77.8953 55.3633 77.7547C55.3674 77.6637 55.3777 77.5727 55.3943 77.4817C55.4108 77.4031 55.4377 77.3184 55.4749 77.2274C55.5122 77.1364 55.5638 77.0496 55.63 76.9668C55.568 76.9048 55.5039 76.8573 55.4377 76.8242C55.3715 76.7952 55.3116 76.7725 55.2578 76.7559C55.1958 76.7394 55.1338 76.7291 55.0717 76.7249C54.9559 76.7249 54.8401 76.7518 54.7243 76.8056C54.6044 76.8635 54.4969 76.942 54.4018 77.0413C54.3025 77.1405 54.2219 77.2584 54.1598 77.3949C54.0978 77.5355 54.0668 77.6906 54.0668 77.8601C54.0668 78.1662 54.0978 78.4267 54.1598 78.6417C54.2219 78.8609 54.3025 79.0429 54.4018 79.1876C54.501 79.3324 54.6106 79.4461 54.7305 79.5288C54.8505 79.6115 54.9683 79.6736 55.0841 79.7149C55.1999 79.7604 55.3074 79.7873 55.4067 79.7956C55.5018 79.808 55.5763 79.8142 55.63 79.8142L55.692 79.8142L55.692 80.9308Z" fill="black"/>
<path d="M33.138 30.0785H28.8675C30.5662 29.0831 30.8672 28.2766 31.0028 26.6848L28.1557 28.0423C26.5986 27.0013 26.5169 26.4078 28.1557 25.3273L31.0028 26.6848L29.5791 23.2912C30.4808 21.5289 31.3584 21.5944 32.4262 23.2912L31.0028 26.6848L34.2057 25.3273C35.4542 26.3877 35.1778 26.9819 34.2057 28.0423L31.0028 26.6848C31.2617 28.2768 31.6311 29.0649 33.138 30.0785Z" fill="black"/>
<path d="M31.0028 26.6848C30.8672 28.2766 30.5662 29.0831 28.8675 30.0785H33.138C31.6311 29.0649 31.2617 28.2768 31.0028 26.6848ZM31.0028 26.6848L28.1557 28.0423C26.5986 27.0013 26.5169 26.4078 28.1557 25.3273L31.0028 26.6848ZM31.0028 26.6848L32.4262 23.2912C31.3584 21.5944 30.4808 21.5289 29.5791 23.2912L31.0028 26.6848ZM31.0028 26.6848L34.2057 25.3273C35.4542 26.3877 35.1778 26.9819 34.2057 28.0423L31.0028 26.6848Z" stroke="black" stroke-width="1.15494"/>
<path d="M33.138 47.4025H28.8675C30.5662 46.407 30.8672 45.6005 31.0028 44.0088L28.1557 45.3663C26.5986 44.3253 26.5169 43.7318 28.1557 42.6513L31.0028 44.0088L29.5791 40.6152C30.4808 38.8529 31.3584 38.9184 32.4262 40.6152L31.0028 44.0088L34.2057 42.6513C35.4542 43.7117 35.1778 44.3059 34.2057 45.3663L31.0028 44.0088C31.2617 45.6008 31.6311 46.3889 33.138 47.4025Z" fill="black"/>
<path d="M31.0028 44.0088C30.8672 45.6005 30.5662 46.407 28.8675 47.4025H33.138C31.6311 46.3889 31.2617 45.6008 31.0028 44.0088ZM31.0028 44.0088L28.1557 45.3663C26.5986 44.3253 26.5169 43.7318 28.1557 42.6513L31.0028 44.0088ZM31.0028 44.0088L32.4262 40.6152C31.3584 38.9184 30.4808 38.8529 29.5791 40.6152L31.0028 44.0088ZM31.0028 44.0088L34.2057 42.6513C35.4542 43.7117 35.1778 44.3059 34.2057 45.3663L31.0028 44.0088Z" stroke="black" stroke-width="1.15494"/>
<path d="M33.1375 60.1071L28.867 60.1071C30.5657 61.1025 30.8668 61.909 31.0023 63.5007L28.1553 62.1433C26.5981 63.1843 26.5164 63.7777 28.1553 64.8582L31.0023 63.5007L29.5787 66.8944C30.4803 68.6567 31.3579 68.5912 32.4257 66.8944L31.0023 63.5007L34.2052 64.8582C35.4537 63.7979 35.1774 63.2036 34.2052 62.1433L31.0023 63.5007C31.2612 61.9087 31.6306 61.1206 33.1375 60.1071Z" fill="black"/>
<path d="M31.0023 63.5007C30.8668 61.909 30.5657 61.1025 28.867 60.1071L33.1375 60.1071C31.6306 61.1206 31.2612 61.9087 31.0023 63.5007ZM31.0023 63.5007L28.1553 62.1433C26.5981 63.1843 26.5164 63.7777 28.1553 64.8582L31.0023 63.5007ZM31.0023 63.5007L32.4257 66.8944C31.3579 68.5912 30.4803 68.6567 29.5787 66.8944L31.0023 63.5007ZM31.0023 63.5007L34.2052 64.8582C35.4537 63.7979 35.1774 63.2036 34.2052 62.1433L31.0023 63.5007Z" stroke="black" stroke-width="1.15494"/>
</svg>

<svg width="61" height="91" fill="none" xmlns="http://www.w3.org/2000/svg"><rect x=".39" y=".05" width="60.06" height="90.09" rx="4.62" fill="#fff"/><mask id="a" style="mask-type:alpha" maskUnits="userSpaceOnUse" x="1" y="1" width="58" height="87"><path d="M11.28 2.36h42.24a4.04 4.04 0 0 1 4.04 4.04v63.94c0 1.37-1.1 2.47-2.46 2.47-1.54 0-2.9.97-3.42 2.42l-2.26 6.4a2.65 2.65 0 0 0 .85 2.95 1.5 1.5 0 0 1-.94 2.67H6.32a4.04 4.04 0 0 1-4.04-4.18l2.04-62.85a2.94 2.94 0 0 1 2.95-2.85 4.1 4.1 0 0 0 4.1-4.1V8.23c0-.96-.46-1.87-1.23-2.44a1.9 1.9 0 0 1 1.14-3.42Z" fill="#C4C4C4" stroke="#000" stroke-width="1.15"/></mask><g mask="url(#a)"><rect x="6.17" y="5.25" width="49.66" height="79.69" rx="4.04" stroke="#000" stroke-width="1.15"/></g><path d="M16.7 19.68h-4.88c1.94-1.13 2.28-2.06 2.44-3.87L11 17.36c-1.78-1.2-1.87-1.87 0-3.1l3.26 1.55-1.63-3.88c1.03-2.02 2.03-1.94 3.25 0l-1.62 3.88 3.66-1.56c1.42 1.22 1.1 1.9 0 3.1l-3.66-1.54c.3 1.81.71 2.72 2.44 3.87Z" fill="#000"/><path d="M14.26 15.8c-.16 1.82-.5 2.75-2.44 3.88h4.88c-1.73-1.15-2.15-2.06-2.44-3.87Zm0 0L11 17.37c-1.78-1.2-1.87-1.87 0-3.1l3.26 1.55Zm0 0 1.62-3.87c-1.22-1.94-2.22-2.02-3.25 0l1.63 3.88Zm0 0 3.66-1.55c1.42 1.22 1.1 1.9 0 3.1l-3.66-1.54Z" stroke="#000" stroke-width="1.15"/><path d="M44.15 70.5h4.88c-1.94 1.14-2.29 2.06-2.44 3.88l3.25-1.55c1.78 1.19 1.87 1.87 0 3.1l-3.25-1.55 1.62 3.88c-1.03 2.01-2.03 1.94-3.25 0l1.63-3.88-3.66 1.55c-1.43-1.21-1.12-1.89 0-3.1l3.66 1.55c-.3-1.82-.72-2.72-2.44-3.88Z" fill="#000"/><path d="M46.59 74.38c.15-1.82.5-2.74 2.44-3.88h-4.88c1.72 1.16 2.14 2.06 2.44 3.88Zm0 0 3.25-1.55c1.78 1.19 1.87 1.87 0 3.1l-3.25-1.55Zm0 0-1.63 3.88c1.22 1.94 2.22 2.01 3.25 0l-1.62-3.88Zm0 0-3.66 1.55c-1.43-1.21-1.12-1.89 0-3.1l3.66 1.55Z" stroke="#000" stroke-width="1.15"/><path d="m5.15 9.25.03.01h.07l.24-.01a1.38 1.38 0 0 0 .97-.63c.1-.15.17-.34.23-.55.06-.22.09-.47.09-.78a1.17 1.17 0 0 0-.66-1.04.77.77 0 0 0-.35-.08.97.97 0 0 0-.19.03 1.2 1.2 0 0 0-.18.07.82.82 0 0 0-.19.14 1 1 0 0 1 .14.26l.1.25.03.27c0 .15-.03.28-.09.38a.9.9 0 0 1-.22.28.95.95 0 0 1-.6.22l-.33-.03a1.04 1.04 0 0 1-.7-.53c-.09-.16-.13-.38-.13-.66 0-.27.06-.52.18-.73.13-.23.3-.42.51-.58a2.99 2.99 0 0 1 2.55-.33 2.36 2.36 0 0 1 1.4 1.29c.14.32.21.7.21 1.12a2.5 2.5 0 0 1-.44 1.46 2.58 2.58 0 0 1-.93.86 2.55 2.55 0 0 1 .93.72 2.19 2.19 0 0 1 .44 1.35 2.46 2.46 0 0 1-2.53 2.57 3 3 0 0 1-1.63-.5 1.96 1.96 0 0 1-.5-.56 1.5 1.5 0 0 1-.2-.75c0-.28.05-.5.14-.66a1.04 1.04 0 0 1 .7-.52c.14-.03.24-.04.33-.04.1 0 .2.02.3.06.11.04.21.1.3.17s.16.17.22.28c.06.1.09.23.09.37 0 .1-.02.18-.03.27l-.08.26c-.04.09-.1.18-.16.26a.75.75 0 0 0 .37.2c.07.03.13.04.2.04.1 0 .22-.03.34-.08.12-.06.23-.14.32-.24a1.14 1.14 0 0 0 .33-.82c0-.3-.03-.56-.09-.78-.06-.22-.14-.4-.24-.54a1.3 1.3 0 0 0-.33-.34 1.54 1.54 0 0 0-.9-.29h-.06V9.25ZM55.7 80.93h-.03l-.08-.01c-.06 0-.14 0-.24.02-.1 0-.2.04-.32.08a1.38 1.38 0 0 0-.65.55c-.1.15-.17.33-.23.55-.05.21-.08.47-.08.77a1.17 1.17 0 0 0 .66 1.04c.11.06.23.09.34.09.06 0 .13-.01.19-.03l.18-.08a.82.82 0 0 0 .19-.13 1 1 0 0 1-.14-.26l-.09-.26-.04-.27c0-.14.03-.27.09-.38a.9.9 0 0 1 .22-.27.95.95 0 0 1 .6-.22c.09 0 .2 0 .33.03a1.04 1.04 0 0 1 .7.52c.09.17.14.38.14.66 0 .27-.07.52-.2.74-.12.22-.29.41-.5.57-.21.16-.46.28-.74.37a2.99 2.99 0 0 1-1.8-.03 2.36 2.36 0 0 1-1.4-1.3c-.15-.31-.22-.69-.22-1.11a2.5 2.5 0 0 1 .44-1.47 2.57 2.57 0 0 1 .94-.85 2.54 2.54 0 0 1-.94-.73 2.19 2.19 0 0 1-.44-1.35 2.46 2.46 0 0 1 2.53-2.57 2.99 2.99 0 0 1 1.63.5c.21.16.38.35.5.57.13.22.2.47.2.74 0 .28-.05.5-.14.66a1.04 1.04 0 0 1-.7.53l-.32.04c-.1 0-.2-.03-.31-.07a.9.9 0 0 1-.3-.16.88.88 0 0 1-.22-.28.77.77 0 0 1-.09-.38l.03-.27.08-.25c.04-.1.1-.18.16-.26a.75.75 0 0 0-.37-.21.98.98 0 0 0-.19-.04.82.82 0 0 0-.35.09 1.2 1.2 0 0 0-.56.59c-.06.14-.1.3-.1.46 0 .3.04.57.1.78.06.22.14.4.24.55.1.14.21.26.33.34a1.54 1.54 0 0 0 .9.28h.06v1.12ZM33.14 30.08h-4.27c1.7-1 2-1.8 2.13-3.4l-2.84 1.36c-1.56-1.04-1.64-1.63 0-2.71L31 26.68l-1.42-3.39c.9-1.76 1.78-1.7 2.85 0L31 26.7l3.2-1.36c1.25 1.06.98 1.65 0 2.71L31 26.68c.26 1.6.63 2.38 2.14 3.4Z" fill="#000"/><path d="M31 26.68c-.13 1.6-.43 2.4-2.13 3.4h4.27c-1.5-1.02-1.88-1.8-2.14-3.4Zm0 0-2.84 1.36c-1.56-1.04-1.64-1.63 0-2.71L31 26.68Zm0 0 1.43-3.39c-1.07-1.7-1.95-1.76-2.85 0L31 26.7Zm0 0 3.2-1.35c1.25 1.06.98 1.65 0 2.71L31 26.68Z" stroke="#000" stroke-width="1.15"/><path d="M33.14 47.4h-4.27c1.7-1 2-1.8 2.13-3.4l-2.84 1.37c-1.56-1.04-1.64-1.64 0-2.72L31 44.01l-1.42-3.4c.9-1.76 1.78-1.7 2.85 0L31 44.02l3.2-1.36c1.25 1.06.98 1.66 0 2.72L31 44c.26 1.6.63 2.38 2.14 3.4Z" fill="#000"/><path d="M31 44c-.13 1.6-.43 2.4-2.13 3.4h4.27c-1.5-1.01-1.88-1.8-2.14-3.4Zm0 0-2.84 1.37c-1.56-1.04-1.64-1.64 0-2.72L31 44.01Zm0 0 1.43-3.38c-1.07-1.7-1.95-1.77-2.85 0L31 44Zm0 0 3.2-1.35c1.25 1.06.98 1.66 0 2.72L31 44Z" stroke="#000" stroke-width="1.15"/><path d="M33.14 60.1h-4.27c1.7 1 2 1.8 2.13 3.4l-2.84-1.36c-1.56 1.04-1.64 1.64 0 2.72L31 63.5l-1.42 3.4c.9 1.76 1.78 1.7 2.85 0L31 63.5l3.2 1.36c1.25-1.06.98-1.66 0-2.72L31 63.5c.26-1.6.63-2.38 2.14-3.4Z" fill="#000"/><path d="M31 63.5c-.13-1.6-.43-2.4-2.13-3.4h4.27c-1.5 1.02-1.88 1.8-2.14 3.4Zm0 0-2.84-1.36c-1.56 1.04-1.64 1.64 0 2.72L31 63.5Zm0 0 1.43 3.4c-1.07 1.7-1.95 1.76-2.85 0L31 63.5Zm0 0 3.2 1.36c1.25-1.06.98-1.66 0-2.72L31 63.5Z" stroke="#000" stroke-width="1.15"/></svg>
